lib/brands/logos/azure.svg

<svg xmlns="http://www.w3.org/2000/svg" fill="none" aria-hidden="true" viewBox="0 0 183 65"><g id="Azure"><path id="Vector" fill="#0089D6" d="M34.4896 54.3928C42.7972 52.9253 49.6589 51.7109 49.7377 51.6942L49.881 51.6638L42.0377 42.3345C37.7239 37.2034 34.1945 32.9853 34.1945 32.961C34.1945 32.9149 42.2933 10.6125 42.3388 10.5331C42.3541 10.5067 47.8655 20.0221 55.699 33.5992C63.0329 46.3104 69.0793 56.7908 69.1355 56.889L69.2377 57.0676L44.3112 57.0644L19.3847 57.0611L34.4896 54.3928V54.3928ZM130.08 52.1366C126.285 51.8933 124.079 49.7328 123.494 45.6887C123.338 44.6129 123.338 44.585 123.322 37.601L123.306 30.8416H124.986H126.665L126.678 37.3796C126.69 43.2722 126.698 43.9631 126.754 44.3776C126.982 46.0599 127.438 47.1913 128.213 48.0033C128.833 48.6532 129.559 49.0337 130.564 49.2356C131.038 49.3309 132.387 49.3311 132.819 49.236C133.838 49.0118 134.655 48.5684 135.375 47.8483C136.196 47.0275 136.804 45.8629 137.098 44.546L137.197 44.1022L137.208 37.5088L137.219 30.9154H138.933H140.648V41.2804V51.6454H138.951H137.254V50.0009C137.254 48.8835 137.242 48.3605 137.216 48.3691C137.195 48.3761 137.108 48.5094 137.022 48.6654C136.438 49.7317 135.463 50.7069 134.396 51.2944C133.116 51.9987 131.833 52.2491 130.08 52.1367V52.1366ZM168.592 52.1198C167.253 52.0192 165.842 51.5587 164.69 50.8457C162.26 49.3428 160.823 46.8657 160.402 43.4566C160.256 42.277 160.239 40.6924 160.36 39.69C160.632 37.4503 161.512 35.2515 162.765 33.6818C163.087 33.2794 163.815 32.5506 164.218 32.2293C165.304 31.3617 166.575 30.7551 167.925 30.4598C168.711 30.2878 170.096 30.2071 170.931 30.2845C173.029 30.479 174.953 31.467 176.26 33.0221C177.588 34.602 178.318 36.8098 178.411 39.5283C178.426 39.9543 178.429 40.7012 178.419 41.1881L178.4 42.0734L171.051 42.0827L163.701 42.092V42.42C163.701 43.4184 163.944 44.5556 164.364 45.5231C164.726 46.3575 165.349 47.2685 165.859 47.7094C166.904 48.6135 168.184 49.1546 169.585 49.2848C170.104 49.3331 171.427 49.2822 172.019 49.1913C173.708 48.9319 175.313 48.2696 176.609 47.2978C176.761 47.1834 176.907 47.0766 176.933 47.0604C176.971 47.0366 176.98 47.3354 176.979 48.5912L176.978 50.1514L176.631 50.3662C175.164 51.2732 173.484 51.8555 171.706 52.0735C171.175 52.1386 169.227 52.1676 168.592 52.1198L168.592 52.1198ZM174.988 38.9604C174.988 37.288 174.284 35.4301 173.286 34.4735C172.575 33.7908 171.714 33.3735 170.691 33.2151C170.207 33.1401 169.187 33.169 168.677 33.2721C167.599 33.49 166.706 33.9642 165.928 34.7331C165.109 35.5423 164.496 36.5251 164.109 37.6449C163.971 38.0476 163.808 38.7087 163.758 39.0764L163.734 39.2516H169.361H174.988V38.9604ZM75.2933 51.5992C75.3019 51.5739 77.7976 45.0174 80.8394 37.0294L86.3698 22.5054H88.1467H89.9237L90.0711 22.8835C90.5217 24.0389 101.143 51.6138 101.143 51.6282C101.143 51.6376 100.292 51.645 99.2522 51.645L97.3618 51.6447L95.831 47.5691L94.3003 43.4936L88.1367 43.4935L81.9731 43.4934L81.9195 43.6317C81.8901 43.7078 81.236 45.5417 80.4661 47.707L79.0663 51.6439L77.172 51.6446C75.6725 51.645 75.2809 51.6356 75.2933 51.5991V51.5992ZM93.1752 40.3833C93.1752 40.3769 92.1451 37.5841 90.886 34.1773C88.5305 27.8036 88.3988 27.4201 88.2126 26.3968C88.1254 25.917 88.0812 25.9037 88.0294 26.3415C87.9924 26.6545 87.8319 27.3547 87.7081 27.7432C87.6467 27.9359 86.5859 30.8472 85.3509 34.2128C84.1158 37.5783 83.1054 40.3462 83.1054 40.3635C83.1054 40.3809 85.3711 40.3951 88.1403 40.3951C90.9095 40.3951 93.1752 40.3898 93.1752 40.3833V40.3833ZM102.286 51.1145V50.5837L108.427 42.142L114.568 33.7003L109.008 33.6818L103.448 33.6634L103.438 32.2525L103.429 30.8416H111.47H119.512V31.3181V31.7947L113.37 40.2824C109.993 44.9507 107.229 48.778 107.229 48.7876C107.229 48.7972 109.959 48.8051 113.297 48.8051H119.364V50.2252V51.6453H110.825H102.286V51.1145ZM147.349 51.6207C147.335 51.6072 147.324 46.9264 147.324 41.2189V30.8416H149.002H150.681V32.981C150.681 34.1577 150.695 35.1204 150.712 35.1204C150.73 35.1204 150.812 34.9278 150.894 34.6924C151.271 33.6136 151.926 32.6057 152.769 31.8046C153.528 31.0829 154.396 30.6513 155.42 30.4862C155.708 30.4398 155.952 30.4309 156.527 30.4459C157.25 30.4647 157.627 30.5176 158.067 30.6612L158.205 30.7064V32.4485V34.1906L157.809 33.9921C157.108 33.6415 156.417 33.5027 155.586 33.5459C155.046 33.574 154.691 33.6435 154.259 33.8057C153.369 34.1395 152.648 34.7287 152.144 35.5329C151.414 36.6972 150.893 38.1938 150.74 39.5693C150.712 39.8161 150.696 41.8265 150.689 45.7897L150.68 51.6453H149.027C148.117 51.6453 147.362 51.6342 147.349 51.6207V51.6207ZM4.575 51.5479C4.575 51.5347 8.2707 45.1193 12.7877 37.2913L21.0003 23.0586L30.5712 15.0267C35.8352 10.6091 40.1563 6.98938 40.1737 6.98259C40.191 6.97617 40.1217 7.15046 40.0198 7.37008C39.9178 7.5897 35.2411 17.6207 29.6271 29.6612L19.4198 51.5531L11.9974 51.5624C7.91508 51.5675 4.575 51.561 4.575 51.5478V51.5479Z"/></g></svg>

<svg xmlns="http://www.w3.org/2000/svg" fill="none" aria-hidden="true" viewBox="0 0 183 65"><path fill="#0089D6" d="M34.49 54.393c8.307-1.468 15.169-2.682 15.248-2.699l.143-.03-7.843-9.33c-4.314-5.13-7.843-9.349-7.843-9.373 0-.046 8.098-22.348 8.144-22.428.015-.026 5.526 9.49 13.36 23.066l13.436 23.29.103.179-24.927-.004-24.926-.003 15.105-2.668Zm95.59-2.256c-3.795-.244-6.001-2.404-6.586-6.448-.156-1.076-.156-1.104-.172-8.088l-.016-6.76h3.359l.013 6.539c.012 5.892.02 6.583.076 6.998.228 1.682.684 2.813 1.459 3.625.62.65 1.346 1.03 2.351 1.233.474.095 1.823.095 2.255 0 1.019-.224 1.836-.668 2.556-1.388.821-.82 1.429-1.985 1.723-3.302l.099-.444.011-6.593.011-6.594h3.429v20.73h-3.394v-1.644c0-1.117-.012-1.64-.038-1.632-.021.007-.108.14-.194.296a6.895 6.895 0 0 1-2.626 2.63c-1.28.704-2.563.954-4.316.842Zm38.512-.017a8.893 8.893 0 0 1-3.902-1.274c-2.43-1.503-3.867-3.98-4.288-7.39-.146-1.179-.163-2.764-.042-3.766.272-2.24 1.152-4.438 2.405-6.008a12.297 12.297 0 0 1 1.453-1.453 9.043 9.043 0 0 1 3.707-1.77c.786-.171 2.171-.252 3.006-.174 2.098.194 4.022 1.182 5.329 2.737 1.328 1.58 2.058 3.788 2.151 6.506.015.426.018 1.173.008 1.66l-.019.885-7.349.01-7.35.009v.328c0 .998.243 2.136.663 3.103.362.834.985 1.745 1.495 2.186a6.566 6.566 0 0 0 3.726 1.576c.519.048 1.842-.003 2.434-.094 1.689-.26 3.294-.921 4.59-1.893.152-.115.298-.221.324-.238.038-.023.047.275.046 1.531l-.001 1.56-.347.215a12.17 12.17 0 0 1-4.925 1.708c-.531.065-2.479.094-3.114.046Zm6.396-13.16c0-1.672-.704-3.53-1.702-4.486-.711-.683-1.572-1.1-2.595-1.259-.484-.075-1.504-.046-2.014.057a5.267 5.267 0 0 0-2.749 1.461 7.5 7.5 0 0 0-1.819 2.912 9.395 9.395 0 0 0-.351 1.431l-.024.176h11.254v-.292ZM75.293 51.6l5.546-14.57 5.53-14.525h3.556l.147.379c.45 1.155 11.072 28.73 11.072 28.744 0 .01-.851.017-1.89.017h-1.891l-1.531-4.076-1.53-4.075h-12.33l-.053.138c-.03.076-.684 1.91-1.454 4.075l-1.4 3.937h-1.894c-1.5.001-1.891-.008-1.879-.045Zm17.882-11.217c0-.006-1.03-2.799-2.289-6.206-2.355-6.373-2.487-6.757-2.673-7.78-.088-.48-.132-.493-.184-.055a10.165 10.165 0 0 1-.32 1.401 876.14 876.14 0 0 1-2.358 6.47 994.806 994.806 0 0 0-2.246 6.15c0 .018 2.266.032 5.035.032 2.77 0 5.035-.005 5.035-.012Zm9.111 10.731v-.53l6.141-8.442 6.141-8.442-5.56-.018-5.56-.019-.01-1.41-.009-1.411h16.083v.953l-6.142 8.487a2829.666 2829.666 0 0 0-6.141 8.506c0 .01 2.73.017 6.068.017h6.067v2.84h-17.078v-.53Zm45.063.507c-.014-.014-.025-4.695-.025-10.402V30.842h3.357v2.139c0 1.177.014 2.14.031 2.14.018 0 .1-.193.182-.429a7.391 7.391 0 0 1 1.875-2.887 4.856 4.856 0 0 1 2.651-1.319c.288-.046.532-.055 1.107-.04.723.019 1.1.072 1.54.215l.138.045v3.485l-.396-.199c-.701-.35-1.392-.49-2.223-.446-.54.028-.895.098-1.327.26a4.199 4.199 0 0 0-2.115 1.727 10.025 10.025 0 0 0-1.404 4.036c-.028.247-.044 2.258-.051 6.22l-.009 5.856h-1.653c-.91 0-1.665-.01-1.678-.024ZM4.575 51.548c0-.013 3.696-6.429 8.213-14.257L21 23.06l9.571-8.032a3618.51 3618.51 0 0 1 9.603-8.044c.017-.007-.052.167-.154.387l-10.393 22.29L19.42 51.553l-7.423.01c-4.082.005-7.422-.002-7.422-.015Z"/></svg>
